X:1
T:Wedding Day, 76.76 D
T:Wedding Day, 76.76 D
T:Edward Garrett McCollin (1858-1923)
T:Public Domain Courtesy of the Cyber Hymnal™
C:Edward Garrett McCollin (1858-1923)
Z:Public Domain
Z:Courtesy of the Cyber Hymnal™
%%score ( 1 2 ) ( 3 4 )
L:1/8
Q:1/4=110
M:4/4
K:Bb
V:1 treble 
V:2 treble 
V:3 bass 
V:4 bass 
V:1
 F2 | [DB]2 [DF]2 [Ed]2 [Ec]2 | [Ec]4 [DB]2 [FA]2 | [EG]3 [EG] F2 [=EB]2 | c6 [_EF]2 | %5
 [DB]2 F2 [^Fd]2 [Fc]2 | [Gc]4 [GB]2 (cd) | [Ac]2 [FA]2 [FA]2 [=EG]2 | F6 F2 | %9
 [Ae]3 [Ae] [Ad]2 [Ac]2 | B4 F2 F2 | [Ae]3 [Ae] [Ad]2 [Fc]2 | f6 B2 | B3 B B2 [B,B]2 | %14
 [B,B]4 [B,B]2 B2 | [Gd]3 [Gc] [FB]2 [EA]2 | [DB]6 |] %17
V:2
 F2 | x8 | x8 | x4 F2 x2 | F2 =E2 F2 x2 | x2 ^F2 x4 | x6 G2 | x8 | F6 F2 | x8 | B4 F2 F2 | x8 | %12
 (F2 A2 B2) B2 | B3 B B2 x2 | x6 B2 | x8 | x6 |] %17
V:3
 F,2 | [B,,F,]2 [B,,B,]2 [F,,G,]2 [F,,A,]2 | [B,,^A,]4 [B,,B,]2 B,2 | [B,C]3 [B,C] [A,C]2 [G,C]2 | %4
 [F,A,]2 [G,B,]2 [A,C]2 [C,A,]2 | [B,,F,]2 [B,,D]2 [D,A,]2 [D,E]2 | [G,E]4 [G,D]2 [B,=E]2 | %7
 [CF]2 (C^C) [^C,D]2 [C,B,]2 | [F,A,]6 [F,A,]2 | [F,G]3 [F,G] [F,F]2 [F,E]2 | %10
 [B,D]4 [B,D]2 [B,F]2 | [F,G]3 [F,G] [F,F]2 [E,A,]2 | ([D,B,]2 [C,C]2 [B,,D]2) B,2 | %13
 B,3 B, B,2 [B,,B,]2 | [B,,B,]4 [B,,B,]2 B,2 | [E,F]3 [E,E] [F,D]2 [F,,C]2 | [B,,B,]6 |] %17
V:4
 F,2 | x8 | x6 B,2 | x8 | x8 | x8 | x8 | x2 ^C,2 x4 | x8 | x8 | x8 | x8 | x6 B,2 | B,3 B, B,2 x2 | %14
 x6 B,2 | x8 | x6 |] %17

